X:1
T:The Upper Window
T:The Upper Window
T:John Casper Bieri
T:John Casper Bieri, alt.
T:Courtesy of the Cyber Hymnal™
T:Courtesy of the Cyber Hymnal™
C:John Casper Bieri
Z:Courtesy of the Cyber Hymnal™
%%score 1 2
L:1/8
Q:1/4=115
M:4/4
K:F
V:1 treble 
V:2 bass 
V:1
 [A,C]2 | [A,C]2 [A,C]2 [A,C]3 [A,C] | [A,D]2 [A,C]4 [CF]2 | [FA]2 [FA]2 [FA]2 [CG]2 | %4
w: 1.~When|God spoke un- to|No- ah, And|said to build the|
w: 2.~“It|may be that af-|flic- tion Will|rack and rend your|
w: 3.~“Per-|haps you’ll suf- fer|loss- es, Like|hous- es, lands, and|
w: 4.~“It|may be that be-|reave- ment Will|take a loved one|
 [CF]6 [CF]2 | [B,D]2 [B,D]2 [DF]3 [DF] | [A,D]2 [A,C]4 [CF]2 | [DG]3 [DG] [DG]2 [FA]2 | %8
w: ark, The|Lord knew well the|vess- el Would|cheer- less be and|
w: frame, Un-|til your mor- tal|bo- dy Is|seared with fe- vered|
w: gold, And|you will feel you’re|home- less, And|pen- ni- less, and|
w: dear, A|soul that brought you|glad- ness, Real|hap- pi- ness and|
 [EG]6 [A,C]2 | [A,C]2 [A,C]2 [A,C]3 [A,C] | [A,D]2 [A,C]4 [CF]2 | [CA]2 [CA]2 [CA]2 [_DG]2 | %12
w: dark, So|God said, “Build a|win- dow, With|out- look toward the|
w: flame; But|do not be dis-|cour- aged, Just|lift your tear- dimmed|
w: old; But|sweet- est peace and|com- fort Will|lift your pain- ful|
w: cheer; But|it will cheer your|sad heart, When|loved ones from you|
 [DF]6 [DF]2 | [B,D]3 [B,D] [DF]3 [DF] | [B,D]2 [A,C]4 [CF]2 | [FA] [FA]3 [EG] [EG]3 | [CF]6 || %17
w: sky, That|when it’s dark and|lone- some, You’ll|see Me stand- ing|by.”|
w: eye, And|through the up- per|win- dow, You’ll|see Me stand- ing|by.”|
w: sigh, When|through the up- per|win- dow, You|see Me stand- ing|by.”|
w: fly, When|through the up- per|win- dow, You|see Me stand- ing|by.”|
"^Refrain" [FA]2 | [Fc]3 [Fc] [Fc]2 [FA]2 | [CG]2 [CF]4 [CG]2 | [CA]2 [CA]2 [DB]2 [D_A]2 | %21
w: ||||
w: The|storms will come, but|fear not, Oh,|child- ren, I am|
w: ||||
w: ||||
 [CA]6 [_EG]2 | [DF]3 [DG] [DF]2 [B,D]2 | [A,C]2 [CF]4 [CF]2 | [FA] [FA]3 [EG] [EG]3 | [CF]6 |] %26
w: |||||
w: nigh, And|through the up- per|win- dow, You’ll|see Me stand- ing|by.|
w: |||||
w: |||||
V:2
 [F,C]2 | [F,C]2 [F,C]2 [F,C]3 [F,C] | [F,C]2 [F,C]4 [F,A,]2 | [F,C]2 [F,C]2 [F,C]2 [E,C]2 | %4
 [F,A,]6 [F,A,]2 | [B,,B,]2 [B,,F,]2 [B,,B,]3 [B,,B,] | [D,F,]2 [F,C]4 [F,A,]2 | %7
 [D,=B,]3 [D,B,] [D,B,]2 [G,B,]2 | [C,B,]6 [F,C]2 | [F,C]2 [F,C]2 [F,C]3 [F,C] | %10
 [F,C]2 [F,C]4 [F,A,]2 | [F,A,]2 [F,A,]2 [F,A,]2 [E,A,]2 | [D,A,]6 [B,,B,]2 | %13
 [B,,F,]3 [B,,F,] [B,,B,]3 [B,,B,] | [D,F,]2 [F,C]4 [F,A,]2 | [F,C] [F,C]3 [C,B,] [C,B,]3 | %16
 [F,A,]6 || [F,C]2 | [F,A,]3 [F,A,] [F,A,]2 [F,C]2 | [C,B,]2 [F,A,]4 [C,C]2 | %20
 [F,A,]2 [F,A,]2 [B,,B,]2 [D,=B,]2 | [F,C]6 [C,A,]2 | [B,,B,]3 [F,B,] [B,,B,]2 [D,B,]2 | %23
 [F,C]2 [F,A,]4 [F,A,]2 | [F,C] [F,C]3 [C,B,] [C,B,]3 | [F,A,]6 |] %26

